X:1
T:The Bank Of Ireland
R:reel
M:4/4
L:1/8
K:Dmix
AB|:c2AB cBAG|EGDG EGAB|c2AB cBAG|Adde fded|
|c2AB cBAG|EGDG EGAB|c2AB cBAG|1 Add^c d2AB:|2 Add^c d2de|]
|:f2fd e2fe|dfed ^cAAe|f2fd e2fg|afge d2^cd|
|eaag efge|dfed cAGc|Add^c defg|1 afge d2de:|2 afge d2AB|]